X: 0642
T: OLD SANDY, BOY
B: Oliver Ditson "The Boston Collection of Instrumental Music" 1910 p.64 #2
F: http://conquest.imslp.info/files/imglnks/usimg/8/8f/IMSLP175643-PMLP309456-bostoncollection00bost_bw.pdf
M: 2/4
L: 1/16
K: Dmix
A>B |\
c>dB>d A>dG>B | F>AG>B D2 B>d | c>dB>d A>dG>B | A6 A,2 |\
D2E2F2G2 | A2B2c2c2 | B>AG>B A2[A2A,2] | D4 z2 |]
A2 |\
A2A2A2A2 | F2G2 F2D2 | D2c2 A2F2 | G2D2 B2d2 |\
A2A2A2A2 | F2G2 F2D2 | F2AF | E2GE | D4 z4 |]
A2AA A2AA | FGEF D2z2 | D2 cc A2F2 | G4 z2D2 |\
c2B2 A2G2 | F2E2 D2D2 | F2AA GGE2 | F4 z2 |]
D2 |\
D2E2 F2G2 | A2B2 c2z2 | E2F2G2z2 | E2F2G2 D2 |\
D2E2 F2G2 | A2B2 c2d2 | BAGB AA[A2A,2] | D4 z2 |]

%%sep 1 1 500
%%sep 1 1 500
